src/scalable/places-normal/brown-folder-unity.svg

<?xml version="1.0" encoding="UTF-8" standalone="no"?>
<svg
   width="64"
   height="64"
   viewBox="0 0 16.933 16.933"
   version="1.1"
   id="svg21"
   sodipodi:docname="brown-folder.svg"
   inkscape:version="1.1.2 (0a00cf5339, 2022-02-04)"
   xmlns:inkscape="http://www.inkscape.org/namespaces/inkscape"
   xmlns:sodipodi="http://sodipodi.sourceforge.net/DTD/sodipodi-0.dtd"
   xmlns="http://www.w3.org/2000/svg"
   xmlns:svg="http://www.w3.org/2000/svg">
  <sodipodi:namedview
     id="namedview23"
     pagecolor="#505050"
     bordercolor="#ffffff"
     borderopacity="1"
     inkscape:pageshadow="0"
     inkscape:pageopacity="0"
     inkscape:pagecheckerboard="1"
     showgrid="false"
     inkscape:zoom="11.5625"
     inkscape:cx="31.913514"
     inkscape:cy="32"
     inkscape:window-width="1920"
     inkscape:window-height="1000"
     inkscape:window-x="0"
     inkscape:window-y="44"
     inkscape:window-maximized="1"
     inkscape:current-layer="svg21" />
  <defs
     id="defs7">
    <linearGradient
       id="a"
       x1="-197.72"
       x2="-197.72"
       y1="263.86"
       y2="273.76"
       gradientTransform="rotate(-45 -337.55 -145.8)"
       gradientUnits="userSpaceOnUse">
      <stop
         offset="0"
         id="stop2" />
      <stop
         stop-opacity="0"
         offset="1"
         id="stop4" />
    </linearGradient>
  </defs>
  <path
     transform="scale(.26458)"
     d="m27.002 8.984-14 .004c-1.11 0-1.493 1.013-2.002 1.998V11h-1c-2.216 0-4 1.784-4 4v28c0 2.216 1.784 4 4 4h44c2.216 0 4-1.784 4-4V15c0-2.216-1.784-4-4-4H37.141c-.047-.003-.092-.014-.14-.014h-7.997c-.586-.94-.89-2.002-2.002-2.002z"
     fill="#795548"
     style="paint-order:stroke fill markers"
     id="path9" />
  <path
     transform="scale(.26458)"
     d="m27.002 8.984-14 .004c-1.11 0-1.493 1.013-2.002 1.998V11h-1c-2.216 0-4 1.784-4 4v28c0 2.216 1.784 4 4 4h44c2.216 0 4-1.784 4-4V15c0-2.216-1.784-4-4-4l-24.996-.014c-.586-.94-.89-2.002-2.002-2.002z"
     opacity=".18"
     style="paint-order:stroke fill markers"
     id="path11" />
  <rect
     x="2.381"
     y="3.7"
     width="12.171"
     height="5.027"
     ry=".533"
     fill="#fff"
     paint-order="markers stroke fill"
     id="rect13" />
  <rect
     x="3.704"
     y="2.64"
     width="3.175"
     height=".529"
     ry=".265"
     opacity=".25"
     paint-order="stroke markers fill"
     id="rect15" />
  <path
     transform="scale(.26458)"
     d="m34 16-3 4H6c-2.216 0-4 1.784-4 4v28c0 2.216 1.784 4 4 4h52c2.216 0 4-1.784 4-4V20c0-2.216-1.784-4-4-4z"
     fill="#795548"
     style="paint-order:stroke fill markers"
     id="path17" />
  <path
     transform="scale(.26458)"
     d="M62 40 46 56h12c2.216 0 4-1.784 4-4V40z"
     fill="url(#a)"
     opacity=".2"
     style="paint-order:stroke fill markers"
     id="path19" />
  <path
     d="M 8.2609186,7.2758984 5.902992,8.6303545 8.4782607,10.117537 11.029855,8.6303545 8.6960613,7.2758984 v 1.0401269 l 0.9191605,0.5318241 c 0.036351,0.012066 0.036351,0.072701 0,0.096987 L 8.5269834,9.5733418 c -0.036351,0.012218 -0.072854,0.012218 -0.096987,0 L 7.3417577,8.9448363 c -0.036351,-0.012218 -0.036351,-0.072854 0,-0.096987 L 8.2609186,8.3158726 Z M 11.030008,8.6303545 8.4784135,10.117843 5.9031447,8.6303545 V 11.326895 L 6.797715,10.806832 V 9.7549438 c 0,-0.0362 0.048265,-0.060638 0.072548,-0.048565 l 1.088544,0.6288122 c 0.036352,0.01222 0.048265,0.04826 0.048265,0.09668 v 1.257774 c 0.024285,0.0362 -0.024285,0.06033 -0.060483,0.04827 L 7.0274282,11.206078 6.132858,11.725684 8.4784129,13.080141 10.812207,11.725684 9.9174839,11.206078 8.9983237,11.750122 c -0.036198,0.02429 -0.072396,-0.01222 -0.072396,-0.04856 V 10.44409 c 0,-0.0362 0.024133,-0.0724 0.048265,-0.09668 L 10.062431,9.7185972 c 0.03635,-0.024136 0.07285,0.012063 0.07285,0.048264 v 1.0518878 l 0.89457,0.520064 z"
     fill="#333333"
     id="path4"
     style="fill:#ffffff;stroke-width:0.152736" />
</svg>

<svg width="64" height="64" viewBox="0 0 16.933 16.933" xmlns="http://www.w3.org/2000/svg"><defs><linearGradient id="a" x1="-197.72" x2="-197.72" y1="263.86" y2="273.76" gradientTransform="rotate(-45 -337.55 -145.8)" gradientUnits="userSpaceOnUse"><stop offset="0"/><stop stop-opacity="0" offset="1"/></linearGradient></defs><path transform="scale(.26458)" d="m27.002 8.984-14 .004c-1.11 0-1.493 1.013-2.002 1.998V11h-1c-2.216 0-4 1.784-4 4v28c0 2.216 1.784 4 4 4h44c2.216 0 4-1.784 4-4V15c0-2.216-1.784-4-4-4H37.141c-.047-.003-.092-.014-.14-.014h-7.997c-.586-.94-.89-2.002-2.002-2.002z" fill="#795548" style="paint-order:stroke fill markers"/><path transform="scale(.26458)" d="m27.002 8.984-14 .004c-1.11 0-1.493 1.013-2.002 1.998V11h-1c-2.216 0-4 1.784-4 4v28c0 2.216 1.784 4 4 4h44c2.216 0 4-1.784 4-4V15c0-2.216-1.784-4-4-4l-24.996-.014c-.586-.94-.89-2.002-2.002-2.002z" opacity=".18" style="paint-order:stroke fill markers"/><rect x="2.381" y="3.7" width="12.171" height="5.027" ry=".533" fill="#fff" paint-order="markers stroke fill"/><rect x="3.704" y="2.64" width="3.175" height=".529" ry=".265" opacity=".25" paint-order="stroke markers fill"/><path transform="scale(.26458)" d="m34 16-3 4H6c-2.216 0-4 1.784-4 4v28c0 2.216 1.784 4 4 4h52c2.216 0 4-1.784 4-4V20c0-2.216-1.784-4-4-4z" fill="#795548" style="paint-order:stroke fill markers"/><path transform="scale(.26458)" d="M62 40 46 56h12c2.216 0 4-1.784 4-4V40z" fill="url(#a)" opacity=".2" style="paint-order:stroke fill markers"/><path d="M8.26 7.276 5.904 8.63l2.575 1.488L11.03 8.63 8.696 7.276v1.04l.92.532c.036.012.036.073 0 .097l-1.089.628c-.036.013-.073.013-.097 0l-1.088-.628c-.037-.012-.037-.073 0-.097l.919-.532Zm2.77 1.354-2.552 1.488L5.903 8.63v2.697l.895-.52V9.755c0-.036.048-.06.072-.049l1.089.63c.036.011.048.047.048.096v1.258c.024.036-.024.06-.06.048l-.92-.532-.894.52 2.345 1.354 2.334-1.354-.895-.52-.919.544c-.036.024-.072-.012-.072-.048v-1.258c0-.036.024-.072.048-.097l1.088-.628c.037-.025.073.012.073.048v1.052l.895.52z" fill="#333" style="fill:#fff;stroke-width:.152736"/></svg>
